X:1
T:大提琴练习曲_Book1_P16_No.24
T:大提琴练习曲_Book1_P16_No.24
L:1/8
Q:1/4=100
M:4/4
K:G
V:1 bass nm="大提琴" snm="Vc."
V:1
"^\n"!p! !tenuto!G,2 !tenuto!G,2 (F,2 D,2) | !tenuto!G,2 !tenuto!G,2 (F,2 D,2) | %2
 !tenuto!E,2 !tenuto!E,2 (F,2 F,2) | G,4 G,,4 :: (G,2 B,2) (B,2 D2) | C4 A,4 | (G,2 B,2) (B,2 D2) | %7
 (D2 C2) A,4 | !tenuto!G,2 !tenuto!G,2 (F,2 D,2) | !tenuto!G,2 !tenuto!G,2 (F,2 D,2) | %10
 !tenuto!E,2 !tenuto!E,2 !tenuto!F,2 !tenuto!F,2 | G,4 G,,4 ::!mf! G,B,A,G, F,E,F,D, | %13
 G,B,A,G, F,E,F,D, | E,CA,G, F,DCA, | G,D,B,,D, G,,D,E,F, :: G,F,G,A, B,CDB, | CB,A,G, F,D,E,F, | %18
 G,F,G,A, B,CDB, | CB,A,G, F,D,E,F, | G,B,A,G, F,E,F,D, | G,B,A,G, F,E,F,D, | E,CA,G, F,DCA, | %23
 G,D,B,,D, G,,2 z2 ::!mf! uD,2 | (3vG,F,G, (3uB,A,G, (3F,A,G, (3F,E,D, | %26
 (3G,F,G, (3B,A,G, (3F,A,G, (3F,E,D, | (3E,CB, (3A,B,G, (3F,!>!DC (3B,CA, | %28
 (3G,E,D, (3C,B,,A,, G,,2 :: uD,2 | (3G,F,G, (3B,A,B, (3D^C=C (3B,A,G, | %31
 (3F,E,F, (3D,F,A, (3!>!CA,G, (3F,E,D, | (3G,F,G, (3B,A,B, (3D^C=C (3B,A,G, | %33
 (3F,E,F, (3D,F,A, (3CA,G, (3F,E,D, | (3G,F,G, (3B,A,G, (3F,A,G, (3F,E,D, | %35
!f! (3G,F,G, (3B,A,G, (3F,A,G, (3F,E,D, |"_cresc." (3E,CB, (3A,B,G, (3F,DC (3B,CA, |1 %37
!f! (3G,B,C (3DCA, G,2 :|2!f! (3G,B,C (3DCA, G,2 z2 |: %39
!f! (G,/F,/)!tenuto!G,/!tenuto!A,/ (C/B,/)!tenuto!A,/!tenuto!G,/ (F,/E,/)!tenuto!F,/!tenuto!G,/ (A,/F,/)!tenuto!E,/!tenuto!D,/ | %40
 (G,/F,/)!tenuto!G,/!tenuto!A,/ (C/B,/)!tenuto!A,/!tenuto!G,/ (F,/E,/)!tenuto!F,/!tenuto!G,/ (A,/F,/)!tenuto!E,/!tenuto!D,/ | %41
 (E,/G,/)!tenuto!A,/!tenuto!B,/ (C/B,/)!tenuto!A,/!tenuto!G,/ (F,/A,/)!tenuto!B,/!tenuto!C/ (D/C/)!tenuto!B,/!tenuto!A,/ | %42
 (G,/B,/)!tenuto!D/!tenuto!B,/ !tenuto!G,/!tenuto!D,/!tenuto!B,,/!tenuto!D,/ !tenuto!G,,2 z2 :: %43
!f! (G,,A,,/)B,,/ C,/D,/E,/F,/ G,/A,/B,/C/ (uD/^C/)!tenuto!D/!tenuto!B,/ | %44
 (vC/D/)!tenuto!C/!tenuto!B,/ (A,/B,/)!tenuto!A,/!tenuto!G,/!>(! (F,/G,/)!tenuto!F,/!tenuto!E,/ (D,/C,/)!tenuto!B,,/!tenuto!A,,/!>)! | %45
!p! G,,A,,/B,,/ C,/D,/E,/F,/ G,/A,/B,/C/ (D/^C/)!tenuto!D/!tenuto!B,/ | %46
 (C/D/C/)!tenuto!B,/ (A,/B,/A,/)!tenuto!G,/ (F,/G,/F,/)!tenuto!E,/ (D,/E,/F,/)!tenuto!D,/ | %47
 (G,/F,/)!tenuto!G,/!tenuto!A,/ (C/B,/)!tenuto!A,/!tenuto!G,/ (F,/E,/)!tenuto!F,/!tenuto!G,/ (A,/F,/)!tenuto!E,/!tenuto!D,/ | %48
 (G,/F,/)!tenuto!G,/!tenuto!A,/ (C/B,/)!tenuto!A,/!tenuto!G,/ (F,/E,/)!tenuto!F,/!tenuto!G,/ (A,/F,/)!tenuto!E,/!tenuto!D,/ | %49
 (E,/G,/)!tenuto!A,/!tenuto!B,/ (C/B,/)!tenuto!A,/!tenuto!G,/ (F,/A,/)!tenuto!B,/!tenuto!C/ (D/C/)!tenuto!B,/!tenuto!A,/ | %50
!f! (G,/B,/)!tenuto!D/!tenuto!B,/ !tenuto!G,/!tenuto!D,/!tenuto!B,,/!tenuto!D,/ !tenuto!G,,2 z2 :| %51

